src/banks/danske_bank.svg

<svg width="256" height="256" viewBox="0 0 256 256" fill="none" xmlns="http://www.w3.org/2000/svg">
<path d="M0 0H256V256H0V0Z" fill="white"/>
<rect width="256" height="140" fill="#03426A"/>
<path d="M51.3644 101.199C51.3644 108.526 47.4251 112.145 38.6066 112.145H24.7298V84.7132H38.159C48.8128 84.7132 51.3644 89.8958 51.3644 95.5699V101.199ZM57.0493 100.976V96.2846C57.0493 81.3175 45.2316 80.7368 37.3084 80.7368H19V116.211H38.8752C54.4978 116.211 57.0493 107.767 57.0493 100.976Z" fill="white"/>
<path d="M88.028 107.456C88.028 109.511 87.8489 111.388 85.4764 112.236C84.0887 112.773 82.1191 112.951 78.8066 112.951C75.4941 112.951 73.5245 112.639 72.3606 111.879C71.5548 111.388 71.2415 110.583 71.2415 108.886C71.2415 106.741 71.7786 105.535 72.8081 105.043C73.8377 104.552 75.1359 104.463 79.1647 104.463H88.028V107.456ZM93.3996 116.213V102.273C93.3996 99.6374 93.3996 97.8057 93.1758 96.4653C92.9072 95.0803 92.4596 94.0973 91.3405 93.2484C88.7441 91.2379 82.3876 91.1934 79.2541 91.1934C76.8817 91.1934 70.4356 91.4615 68.0632 93.472C67.2574 94.1422 67.0783 94.9463 67.0783 95.9292C67.0783 96.5547 67.1679 97.4034 67.2126 98.5203H72.4501C72.5396 97.8949 72.6739 96.3758 73.2558 95.7504C73.972 95.0802 75.1807 94.8123 78.7618 94.8123C82.8801 94.8123 85.7449 94.9463 86.9535 95.6165C88.0726 96.2419 88.028 97.5822 88.028 98.6098V101.022H75.9417C72.6739 101.022 68.9137 101.112 66.8546 103.926C65.9145 105.133 65.5117 106.696 65.5117 108.707C65.5117 114.604 69.1375 116.57 78.4484 116.57C83.2829 116.57 86.4612 115.811 88.386 114.158L88.8785 116.213H93.3996Z" fill="white"/>
<path d="M125.808 116.211V102.629C125.808 97.9379 125.584 96.9548 124.465 96.106C123.391 95.3018 121.242 94.8104 117.974 94.8104C115.109 94.8104 112.155 95.1678 109.38 95.9274V116.211H104.053V91.3701H108.843L109.201 93.1574C110.275 92.5766 111.081 92.1296 112.2 91.8168C113.99 91.2807 116.229 91.0126 119.228 91.0126C122.63 91.0126 125.271 91.5488 127.285 92.4424C129.255 93.2912 130.329 94.8998 130.732 96.7762C131.001 98.0719 131.135 99.1888 131.135 102.003V116.211H125.808Z" fill="white"/>
<path d="M165.332 114.694C162.87 115.944 158.841 116.48 153.604 116.48C149.978 116.48 146.979 116.212 144.651 115.587C142.144 115.006 140.891 113.844 140.757 111.7C140.667 110.583 140.757 109.6 140.891 108.26H146.039C146.218 109.511 146.218 109.913 146.263 110.181C146.442 111.343 146.352 111.968 147.74 112.415C149.083 112.817 151.231 112.996 153.962 112.996C157.364 112.996 159.737 112.638 161.303 111.923C162.422 111.432 162.96 110.538 162.96 108.84C162.96 106.875 162.557 106.071 160.498 105.758C159.871 105.624 159.244 105.624 158.573 105.579C158.215 105.534 157.051 105.534 155.171 105.49C154.275 105.49 153.246 105.4 152.037 105.356C146.71 105.088 141.07 104.864 141.07 98.6541C141.07 93.0247 144.517 91.0588 154.007 91.0588C156.424 91.0588 159.379 91.2377 161.169 91.4611C163.228 91.7291 164.795 92.0864 165.914 92.7119C167.167 93.4267 167.57 94.5438 167.57 96.5097C167.57 97.0458 167.57 97.5819 167.481 98.4308H162.288L162.064 97.3138C161.796 95.9735 161.706 95.7055 161.259 95.3927C160.498 94.8119 158.215 94.5438 154.992 94.5438C151.769 94.5438 149.933 94.6777 148.456 95.2138C147.068 95.7053 146.442 96.5989 146.442 98.3861C146.442 99.5924 146.889 100.486 147.471 100.888C148.859 101.737 156.2 101.647 158.707 101.692C161.393 101.737 163.139 101.96 164.661 102.496C167.391 103.435 168.466 105.222 168.466 108.84C168.466 111.745 167.526 113.577 165.332 114.694Z" fill="white"/>
<path d="M198.191 116.211L185.344 104.461H183.463V116.211H178.092V80.7368H183.463V100.931H185.344L195.997 91.3701H202.264L189.865 102.316L205.308 116.211H198.191Z" fill="white"/>
<path d="M231.808 101.378H214.663C214.842 98.2502 215.514 96.8654 216.723 95.9718C217.976 95.0782 220.259 94.6313 223.616 94.6313C228.272 94.6313 230.465 95.6589 231.271 97.8035C231.584 98.697 231.808 99.5458 231.808 101.378ZM236.732 108.437H231.45C231.271 109.196 231.181 111.117 230.465 111.832C229.659 112.637 228.048 112.994 223.75 112.994C219.498 112.994 217.17 112.413 215.962 111.207C215.066 110.313 214.529 108.437 214.529 105.533V104.863H236.866C236.911 103.656 237.001 103.344 237.001 102.361C237.001 98.2503 236.419 95.9717 234.628 94.2293C232.614 92.1295 228.719 91.1018 223.348 91.1018C216.499 91.1018 212.291 92.6655 210.545 96.1057C209.516 98.0715 208.934 100.842 208.934 104.282C208.934 109.688 210.366 113.083 213.544 114.781C215.514 115.853 218.916 116.479 223.258 116.523C226.884 116.523 229.794 116.345 232.972 115.406C236.061 114.424 236.822 112.681 236.822 111.207C236.822 110.849 236.822 109.643 236.732 108.437Z" fill="white"/>
<path d="M84.8281 167.665C84.8281 172.892 81.8737 173.964 75.7858 173.964H62.3118V162.705H76.4572C81.8737 162.705 84.8281 163.197 84.8281 167.665ZM91.856 184.195C91.856 179.817 89.3493 176.6 83.3509 175.662V175.573C88.0064 174.366 90.5132 171.954 90.5132 168.156C90.5132 161.901 87.4692 158.729 78.8297 158.729H56.582V194.203H79.725C87.514 194.203 91.856 190.674 91.856 184.195ZM86.1263 184.597C86.1263 189.646 82.5451 190.138 76.9944 190.138H62.3118V177.985H77.7106C84.2909 177.985 86.1263 180.085 86.1263 184.597Z" fill="#03426A"/>
<path d="M120.907 185.448C120.907 187.503 120.773 189.38 118.4 190.229C117.013 190.765 115.043 190.944 111.73 190.944C108.418 190.944 106.448 190.631 105.284 189.871C104.479 189.38 104.165 188.576 104.165 186.878C104.165 184.733 104.702 183.527 105.777 183.036C106.762 182.544 108.06 182.455 112.133 182.455H120.907V185.448ZM126.324 194.205V180.266C126.324 177.63 126.323 175.798 126.1 174.458C125.831 173.073 125.383 172.089 124.264 171.241C121.668 169.23 115.312 169.186 112.178 169.186C109.806 169.186 103.36 169.454 100.987 171.464C100.181 172.134 100.002 172.939 100.002 173.921C100.002 174.547 100.092 175.396 100.137 176.513H105.374C105.508 175.887 105.598 174.368 106.18 173.743C106.896 173.072 108.105 172.804 111.686 172.804C115.804 172.804 118.669 172.938 119.878 173.609C120.997 174.234 120.907 175.574 120.907 176.602V179.014H108.865C105.598 179.014 101.838 179.104 99.7784 181.919C98.8831 183.125 98.4355 184.689 98.4355 186.699C98.4355 192.597 102.061 194.562 111.372 194.562C116.252 194.562 119.385 193.803 121.31 192.15L121.802 194.205H126.324Z" fill="#03426A"/>
<path d="M157.39 194.203V180.621C157.39 175.93 157.166 174.947 156.047 174.098C154.973 173.294 152.824 172.803 149.556 172.803C146.692 172.803 143.737 173.16 140.962 173.92V194.203H135.635V169.362H140.425L140.827 171.15C141.857 170.569 142.663 170.122 143.827 169.809C145.572 169.273 147.811 169.005 150.81 169.005C154.212 169.005 156.853 169.541 158.867 170.435C160.837 171.283 161.911 172.892 162.359 174.768C162.627 176.064 162.717 177.181 162.717 179.996V194.203H157.39Z" fill="#03426A"/>
<path d="M192.126 194.203L179.279 182.453H177.354V194.203H172.027V158.729H177.354V178.923H179.279L189.933 169.362H196.155L183.755 180.308L199.199 194.203H192.126Z" fill="#03426A"/>
</svg>

<svg xmlns="http://www.w3.org/2000/svg" viewBox="0 0 256 256"><path fill="#fff" d="M0 0h256v256H0z"/><path fill="#03426A" d="M0 0h256v140H0z"/><path fill="#fff" d="M51.364 101.199c0 7.327-3.939 10.946-12.757 10.946H24.73V84.713h13.429c10.654 0 13.205 5.183 13.205 10.857zm5.685-.223v-4.691c0-14.968-11.817-15.548-19.74-15.548H19v35.474h19.875c15.623 0 18.174-8.444 18.174-15.235m30.979 6.48c0 2.055-.18 3.932-2.552 4.78-1.387.537-3.357.715-6.67.715s-5.281-.312-6.445-1.072c-.806-.491-1.12-1.296-1.12-2.993 0-2.145.538-3.351 1.567-3.843 1.03-.491 2.328-.58 6.357-.58h8.863zm5.372 8.757v-13.94c0-2.636 0-4.467-.224-5.808-.269-1.385-.716-2.368-1.835-3.217-2.597-2.01-8.953-2.055-12.087-2.055-2.372 0-8.818.269-11.19 2.279-.807.67-.986 1.474-.986 2.457 0 .626.09 1.474.135 2.591h5.237c.09-.625.224-2.144.806-2.77.716-.67 1.925-.938 5.506-.938 4.118 0 6.983.134 8.192.805 1.119.625 1.074 1.965 1.074 2.993v2.412H75.942c-3.268 0-7.028.09-9.087 2.904-.94 1.207-1.343 2.77-1.343 4.781 0 5.897 3.626 7.863 12.936 7.863 4.835 0 8.013-.759 9.938-2.412l.493 2.055zm32.408-.002v-13.582c0-4.691-.224-5.674-1.343-6.523-1.074-.804-3.223-1.296-6.491-1.296-2.865 0-5.819.358-8.594 1.117v20.284h-5.327v-24.84h4.79l.358 1.786c1.074-.58 1.88-1.027 2.999-1.34 1.79-.536 4.029-.804 7.028-.804 3.402 0 6.043.536 8.057 1.43 1.97.848 3.044 2.457 3.447 4.333.269 1.296.403 2.413.403 5.227v14.208zm39.524-1.517c-2.462 1.25-6.491 1.786-11.728 1.786-3.626 0-6.625-.268-8.953-.893-2.507-.581-3.76-1.743-3.894-3.887-.09-1.117 0-2.1.134-3.44h5.148c.179 1.251.179 1.653.224 1.921.179 1.162.089 1.787 1.477 2.234 1.343.402 3.491.581 6.222.581 3.402 0 5.775-.358 7.341-1.073 1.119-.491 1.657-1.385 1.657-3.083 0-1.965-.403-2.769-2.462-3.082-.627-.134-1.254-.134-1.925-.179-.358-.045-1.522-.045-3.402-.089-.896 0-1.925-.09-3.134-.134-5.327-.268-10.967-.492-10.967-6.702 0-5.63 3.447-7.595 12.937-7.595 2.417 0 5.372.179 7.162.402 2.059.268 3.626.625 4.745 1.25 1.253.716 1.656 1.833 1.656 3.799 0 .536 0 1.072-.089 1.92h-5.193l-.224-1.116c-.268-1.34-.358-1.608-.805-1.921-.761-.581-3.044-.85-6.267-.85s-5.059.135-6.536.67c-1.388.492-2.014 1.386-2.014 3.173 0 1.206.447 2.1 1.029 2.502 1.388.849 8.729.759 11.236.804 2.686.045 4.432.268 5.954.804 2.73.939 3.805 2.726 3.805 6.344 0 2.905-.94 4.737-3.134 5.854m32.859 1.517-12.847-11.75h-1.881v11.75h-5.371V80.737h5.371v20.194h1.881l10.653-9.56h6.267l-12.399 10.945 15.443 13.895zm33.617-14.833h-17.145c.179-3.128.851-4.513 2.06-5.406 1.253-.894 3.536-1.34 6.893-1.34 4.656 0 6.849 1.027 7.655 3.171.313.894.537 1.743.537 3.575m4.924 7.059h-5.282c-.179.759-.269 2.68-.985 3.395-.806.805-2.417 1.162-6.715 1.162-4.252 0-6.58-.581-7.788-1.787-.896-.894-1.433-2.77-1.433-5.674v-.67h22.337c.045-1.207.135-1.519.135-2.502 0-4.11-.582-6.39-2.373-8.132-2.014-2.1-5.909-3.127-11.28-3.127-6.849 0-11.057 1.563-12.803 5.004-1.029 1.966-1.611 4.736-1.611 8.176 0 5.406 1.432 8.801 4.61 10.499 1.97 1.072 5.372 1.698 9.714 1.742 3.626 0 6.536-.178 9.714-1.117 3.089-.982 3.85-2.725 3.85-4.199 0-.358 0-1.564-.09-2.77"/><path fill="#03426A" d="M84.828 167.665c0 5.227-2.954 6.299-9.042 6.299H62.312v-11.259h14.145c5.417 0 8.371.492 8.371 4.96m7.028 16.53c0-4.378-2.507-7.595-8.505-8.533v-.089c4.655-1.207 7.162-3.619 7.162-7.417 0-6.255-3.044-9.427-11.683-9.427H56.582v35.474h23.143c7.789 0 12.131-3.529 12.131-10.008m-5.73.402c0 5.049-3.58 5.541-9.132 5.541H62.312v-12.153H77.71c6.58 0 8.415 2.1 8.415 6.612m34.782.851c0 2.055-.134 3.932-2.507 4.781-1.387.536-3.357.715-6.67.715s-5.282-.313-6.446-1.073c-.805-.491-1.119-1.295-1.119-2.993 0-2.145.537-3.351 1.612-3.842.985-.492 2.283-.581 6.356-.581h8.774zm5.417 8.757v-13.939c0-2.636-.001-4.468-.224-5.808-.269-1.385-.717-2.369-1.836-3.217-2.596-2.011-8.952-2.055-12.086-2.055-2.372 0-8.818.268-11.191 2.278-.806.67-.985 1.475-.985 2.457 0 .626.09 1.475.135 2.592h5.237c.134-.626.224-2.145.806-2.77.716-.671 1.925-.939 5.506-.939 4.118 0 6.983.134 8.192.805 1.119.625 1.029 1.965 1.029 2.993v2.412h-12.042c-3.267 0-7.027.09-9.087 2.905-.895 1.206-1.343 2.77-1.343 4.78 0 5.898 3.626 7.863 12.937 7.863 4.88 0 8.013-.759 9.938-2.412l.492 2.055zm31.066-.002v-13.582c0-4.691-.224-5.674-1.343-6.523-1.074-.804-3.223-1.295-6.491-1.295-2.864 0-5.819.357-8.594 1.117v20.283h-5.327v-24.841h4.79l.402 1.788c1.03-.581 1.836-1.028 3-1.341 1.745-.536 3.984-.804 6.983-.804 3.402 0 6.043.536 8.057 1.43 1.97.848 3.044 2.457 3.492 4.333.268 1.296.358 2.413.358 5.228v14.207zm34.736 0-12.847-11.75h-1.925v11.75h-5.327v-35.474h5.327v20.194h1.925l10.654-9.561h6.222l-12.4 10.946 15.444 13.895z"/></svg>
